src/img/icons/phone-dark.svg

<svg fill="none" height="26" viewBox="0 0 25 26" width="25" xmlns="http://www.w3.org/2000/svg"><path d="m23.9531 19.1406-1.125 4.7344c-.1406.7031-.7031 1.1719-1.4062 1.1719-11.81252-.0469-21.4219-9.6563-21.4219-21.46878 0-.70312.421875-1.26562 1.125-1.40624l4.73438-1.125c.65624-.14063 1.35937.23437 1.64062.84374l2.20312 5.10938c.23438.60938.09376 1.3125-.42187 1.6875l-2.53125 2.0625c1.59375 3.2344 4.2188 5.8594 7.5 7.4531l2.0625-2.5312c.375-.4688 1.0781-.6563 1.6875-.4219l5.1094 2.2031c.6094.3281.9844 1.0313.8437 1.6875z" fill="#454545"/></svg>

<svg width="25" height="26" viewBox="0 0 25 26" fill="none" xmlns="http://www.w3.org/2000/svg">
<path d="M23.9531 19.1406L22.8281 23.875C22.6875 24.5781 22.125 25.0469 21.4219 25.0469C9.60938 25 0 15.3906 0 3.57812C0 2.875 0.421875 2.3125 1.125 2.17188L5.85938 1.04688C6.51562 0.90625 7.21875 1.28125 7.5 1.89062L9.70312 7C9.9375 7.60938 9.79688 8.3125 9.28125 8.6875L6.75 10.75C8.34375 13.9844 10.9688 16.6094 14.25 18.2031L16.3125 15.6719C16.6875 15.2031 17.3906 15.0156 18 15.25L23.1094 17.4531C23.7188 17.7812 24.0938 18.4844 23.9531 19.1406Z" fill="#454545"/>
</svg>
